src/assets/svg/icons/fa/nuevos/classic/light/draw-polygon classic light.svg

<svg xmlns="http://www.w3.org/2000/svg" viewBox="0 0 448 512"><!--! Font Awesome Pro 6.4.0 by @fontawesome - https://fontawesome.com License - https://fontawesome.com/license (Commercial License) Copyright 2023 Fonticons, Inc. --><path d="M96 96A32 32 0 1 0 32 96a32 32 0 1 0 64 0zM80 158V354c22.5 5.8 40.2 23.5 46 46H322c2.9-11.1 8.6-21 16.4-28.9l-32.2-53.7c-5.8 1.7-11.9 2.6-18.2 2.6c-35.3 0-64-28.7-64-64s28.7-64 64-64c6.3 0 12.4 .9 18.2 2.6l32.2-53.7c-7.8-7.9-13.5-17.8-16.4-28.9H126c-5.8 22.5-23.5 40.2-46 46zM365.8 354.6c5.8-1.7 11.9-2.6 18.2-2.6c35.3 0 64 28.7 64 64s-28.7 64-64 64c-29.8 0-54.9-20.4-62-48H126c-7.1 27.6-32.2 48-62 48c-35.3 0-64-28.7-64-64c0-29.8 20.4-54.9 48-62V158C20.4 150.9 0 125.8 0 96C0 60.7 28.7 32 64 32c29.8 0 54.9 20.4 62 48H322c7.1-27.6 32.2-48 62-48c35.3 0 64 28.7 64 64s-28.7 64-64 64c-6.3 0-12.4-.9-18.2-2.6l-32.2 53.7C345 222.6 352 238.5 352 256s-7 33.4-18.4 44.9l32.2 53.7zM64 384a32 32 0 1 0 0 64 32 32 0 1 0 0-64zM352 96a32 32 0 1 0 64 0 32 32 0 1 0 -64 0zm32 352a32 32 0 1 0 0-64 32 32 0 1 0 0 64zM288 288a32 32 0 1 0 0-64 32 32 0 1 0 0 64z"/></svg>

<svg xmlns="http://www.w3.org/2000/svg" viewBox="0 0 448 512"><path d="M365.8 354.6C371.6 352.9 377.7 352 384 352C419.3 352 448 380.7 448 416C448 451.3 419.3 480 384 480C354.2 480 329.1 459.6 322 432H125.1C118.9 459.6 93.82 480 64 480C28.65 480 0 451.3 0 416C0 386.2 20.4 361.1 48 354V157.1C20.4 150.9 0 125.8 0 96C0 60.65 28.65 32 64 32C93.82 32 118.9 52.4 125.1 80H322C329.1 52.4 354.2 32 384 32C419.3 32 448 60.65 448 96C448 131.3 419.3 160 384 160C377.7 160 371.6 159.1 365.8 157.4L333.6 211.1C344.1 222.6 352 238.5 352 256C352 273.5 344.1 289.4 333.6 300.9L365.8 354.6zM64 64C46.33 64 32 78.33 32 96C32 113.7 46.33 128 64 128C81.67 128 96 113.7 96 96C96 78.33 81.67 64 64 64zM80 354C102.5 359.8 120.2 377.5 125.1 400H322C324.9 388.9 330.6 378.1 338.4 371.1L306.2 317.4C300.4 319.1 294.3 320 288 320C252.7 320 224 291.3 224 256C224 220.7 252.7 192 288 192C294.3 192 300.4 192.9 306.2 194.6L338.4 140.9C330.6 133 324.9 123.1 322 112H125.1C120.2 134.5 102.5 152.2 80 157.1V354zM64 384C46.33 384 32 398.3 32 416C32 433.7 46.33 448 64 448C81.67 448 96 433.7 96 416C96 398.3 81.67 384 64 384zM352 96C352 113.7 366.3 128 384 128C401.7 128 416 113.7 416 96C416 78.33 401.7 64 384 64C366.3 64 352 78.33 352 96zM416 416C416 398.3 401.7 384 384 384C366.3 384 352 398.3 352 416C352 433.7 366.3 448 384 448C401.7 448 416 433.7 416 416zM288 288C305.7 288 320 273.7 320 256C320 238.3 305.7 224 288 224C270.3 224 256 238.3 256 256C256 273.7 270.3 288 288 288z"/></svg>
